remix/Business/send-plane-2-fill.svg

<svg viewBox="0 0 24 24" fill="currentColor" xmlns="http://www.w3.org/2000/svg"><path d="M3 12.9999H9V10.9999H3V1.84558C3 1.56944 3.22386 1.34558 3.5 1.34558C3.58425 1.34558 3.66714 1.36687 3.74096 1.40747L22.2034 11.5618C22.4454 11.6949 22.5337 11.9989 22.4006 12.2409C22.3549 12.324 22.2865 12.3924 22.2034 12.4381L3.74096 22.5924C3.499 22.7255 3.19497 22.6372 3.06189 22.3953C3.02129 22.3214 3 22.2386 3 22.1543V12.9999Z"/></svg>

<svg viewBox="0 0 24 24" xmlns="http://www.w3.org/2000/svg"><path fill="none" d="M0 0h24v24H0Z"/><path d="M3 13h6v-2H3V1.846v0c0-.28.22-.5.5-.5 .08 0 .16.02.24.06L22.2 11.56v0c.24.13.33.43.19.67 -.05.08-.12.15-.2.19L3.72 22.57h0c-.25.13-.55.04-.68-.2 -.05-.08-.07-.16-.07-.25v-9.16Z"/></svg>
